public/images/icons/markUnreadChat.svg

<svg width="20" height="21" viewBox="0 0 20 21" fill="none" xmlns="http://www.w3.org/2000/svg">
<g id="mark_unread_chat_alt">
<mask id="mask0_625_6868" style="mask-type:alpha" maskUnits="userSpaceOnUse" x="0" y="0" width="20" height="21">
<rect id="Bounding box" y="0.5" width="20" height="20" fill="#D9D9D9"/>
</mask>
<g mask="url(#mask0_625_6868)">
<path id="mark_unread_chat_alt_2" d="M4.27092 13.75H16.585V7.18464C16.9034 7.11709 17.2112 7.02239 17.5085 6.90053C17.8058 6.77867 18.0807 6.61738 18.3334 6.41666V13.75C18.3334 14.2312 18.1621 14.6432 17.8194 14.9859C17.4766 15.3286 17.0647 15.5 16.5834 15.5H5.00008L1.66675 18.8333V3.91666C1.66675 3.43541 1.8381 3.02343 2.18081 2.68072C2.52352 2.33801 2.9355 2.16666 3.41675 2.16666H11.7084C11.639 2.45832 11.6042 2.74999 11.6042 3.04166C11.6042 3.33332 11.639 3.62499 11.7084 3.91666H3.41675V14.6042L4.27092 13.75ZM5.00008 12.1667H11.7084V10.4167H5.00008V12.1667ZM5.00008 9.70832H15.0001V7.95832H5.00008V9.70832ZM5.00008 7.24999H15.0001V7.16666C14.4723 7.05555 13.9862 6.85416 13.5417 6.56249C13.0973 6.27082 12.7239 5.91666 12.4215 5.49999H5.00008V7.24999ZM15.8334 5.72916C15.139 5.72916 14.5487 5.4861 14.0626 4.99999C13.5765 4.51388 13.3334 3.9236 13.3334 3.22916C13.3334 2.53471 13.5765 1.94443 14.0626 1.45832C14.5487 0.972212 15.139 0.729156 15.8334 0.729156C16.5279 0.729156 17.1181 0.972212 17.6042 1.45832C18.0904 1.94443 18.3334 2.53471 18.3334 3.22916C18.3334 3.9236 18.0904 4.51388 17.6042 4.99999C17.1181 5.4861 16.5279 5.72916 15.8334 5.72916Z" fill="#626474"/>
</g>
</g>
</svg>

<svg width="current" height="current" viewBox="0 0 20 21" fill="none" xmlns="http://www.w3.org/2000/svg">
  <mask id="a" style="mask-type:alpha" maskUnits="userSpaceOnUse" x="0" y="0" width="20" height="20">
    <path fill="currentColor" d="M0 .5h20v20H0z"/>
  </mask>
  <g mask="url(#a)">
    <path d="M4.27 13.75h12.315V7.185a5.52 5.52 0 0 0 .924-.284c.297-.122.572-.284.824-.484v7.333c0 .481-.17.893-.514 1.236a1.685 1.685 0 0 1-1.236.514H5l-3.333 3.333V3.917c0-.482.171-.894.514-1.236a1.685 1.685 0 0 1 1.236-.514h8.291a3.769 3.769 0 0 0 0 1.75H3.417v10.687l.854-.854ZM5 12.167h6.708v-1.75H5v1.75Zm0-2.459h10v-1.75H5v1.75ZM5 7.25h10v-.083a4.218 4.218 0 0 1-1.458-.605 4.252 4.252 0 0 1-1.12-1.062H5v1.75Zm10.833-1.52a2.41 2.41 0 0 1-1.77-.73 2.411 2.411 0 0 1-.73-1.77c0-.695.243-1.286.73-1.772a2.41 2.41 0 0 1 1.77-.729 2.41 2.41 0 0 1 1.771.73 2.41 2.41 0 0 1 .73 1.77A2.41 2.41 0 0 1 17.603 5a2.41 2.41 0 0 1-1.77.73Z" fill="currentColor"/>
  </g>
</svg>
